X: 534
T: Polska efter Troskari Erik
S: efter Troskari Erik Persson
R: Polska
N: Spelbar på säckpipa
O: Dalarna
Z: Håkan Lidén, 2008-09-27
Q: 3/8=126
M: 9/8
L: 1/4
K: Ador
B/ | c3/2 A ^G/ E B/ | c3/2 A ^G/ E B/ | c3/2 A ^G/ E G/ | B3/2 e3/2- e :: B/ | c A/ c e/ e d/ | 
B ^G/ B d/ d B/ | c A/ c e/ e d/ | B ^G/ B d/ d B/ | c3/2 B ^G/ E G/ | A3/2 A3/2- A :|
(:musicend:)

(:music:)
